source/svgs/biocrop_layer3.svg

<svg xmlns="http://www.w3.org/2000/svg" viewBox="0 0 3.04 9.03" preserveAspectRatio="xMinYMax"><path fill="#ABD7D3" d="M1.71 9.03H1.31V1.74c0-.03 0-.06.02-.09.03-.09.1-.15.19-.15.11 0 .2.11.2.24l-.01 7.29z"/><path fill="#ABD7D3" d="M1.06 5.05c.38.44.32 1.12.32 1.12S.7 6.12.32 5.68 0 4.56 0 4.56s.68.04 1.06.49zM2 1.05c0 .58-.48 1.06-.48 1.06s-.49-.47-.5-1.05S1.51 0 1.51 0 2 .47 2 1.05zM1.98 5.05c-.38.44-.31 1.12-.31 1.12s.68-.04 1.06-.48c.37-.45.31-1.13.31-1.13s-.68.04-1.06.49zM1.06 1.99c.38.44.32 1.12.32 1.12S.7 3.07.32 2.63 0 1.51 0 1.51s.68.03 1.06.48zM1.98 1.99c-.38.44-.31 1.12-.31 1.12s.68-.04 1.06-.48c.37-.45.31-1.12.31-1.12s-.68.03-1.06.48zM1.06 3.52c.38.44.32 1.12.32 1.12S.7 4.6.32 4.15C-.06 3.71 0 3.04 0 3.04s.68.03 1.06.48zM1.98 3.52c-.38.44-.31 1.12-.31 1.12s.67-.04 1.05-.49c.38-.44.32-1.11.32-1.11s-.68.03-1.06.48zM1.06 6.58c.38.44.32 1.12.32 1.12S.7 7.65.32 7.21 0 6.09 0 6.09s.68.04 1.06.49zM1.98 6.58c-.38.44-.31 1.11-.31 1.11s.68-.04 1.06-.48c.37-.44.31-1.12.31-1.12s-.68.04-1.06.49z"/></svg>

<?xml version="1.0" encoding="utf-8"?>
<!-- Generator: Adobe Illustrator 18.1.0, SVG Export Plug-In . SVG Version: 6.00 Build 0)  -->
<svg version="1.1" id="Layer_1" xmlns="http://www.w3.org/2000/svg" xmlns:xlink="http://www.w3.org/1999/xlink" x="0px" y="0px"
	 viewBox="0 0 3.04 9.03" enable-background="new 0 0 3.04 9.03" xml:space="preserve" preserveAspectRatio="xMinYMax">
<g>
	<g>
		<g>
			<g id="XMLID_64_">
				<g>
					<path fill="#ABD7D3" d="M1.71,9.03H1.6H1.31V1.74c0-0.03,0-0.06,0.02-0.09C1.36,1.56,1.43,1.5,1.52,1.5
						c0.11,0,0.2,0.11,0.2,0.24L1.71,9.03L1.71,9.03z"/>
				</g>
			</g>
		</g>
		<path fill="#ABD7D3" d="M1.06,5.05c0.38,0.44,0.32,1.12,0.32,1.12S0.7,6.12,0.32,5.68C-0.06,5.24,0,4.56,0,4.56
			S0.68,4.6,1.06,5.05z"/>
		<path fill="#ABD7D3" d="M2,1.05c0,0.58-0.48,1.06-0.48,1.06s-0.49-0.47-0.5-1.05S1.51,0,1.51,0S2,0.47,2,1.05z"/>
		<path fill="#ABD7D3" d="M1.98,5.05C1.6,5.49,1.67,6.17,1.67,6.17s0.68-0.04,1.06-0.48C3.1,5.24,3.04,4.56,3.04,4.56
			S2.36,4.6,1.98,5.05z"/>
		<path fill="#ABD7D3" d="M1.06,1.99c0.38,0.44,0.32,1.12,0.32,1.12S0.7,3.07,0.32,2.63S0,1.51,0,1.51S0.68,1.54,1.06,1.99z"/>
		<path fill="#ABD7D3" d="M1.98,1.99C1.6,2.43,1.67,3.11,1.67,3.11s0.68-0.04,1.06-0.48C3.1,2.18,3.04,1.51,3.04,1.51
			S2.36,1.54,1.98,1.99z"/>
		<path fill="#ABD7D3" d="M1.06,3.52c0.38,0.44,0.32,1.12,0.32,1.12S0.7,4.6,0.32,4.15C-0.06,3.71,0,3.04,0,3.04
			S0.68,3.07,1.06,3.52z"/>
		<path fill="#ABD7D3" d="M1.98,3.52C1.6,3.96,1.67,4.64,1.67,4.64S2.34,4.6,2.72,4.15C3.1,3.71,3.04,3.04,3.04,3.04
			S2.36,3.07,1.98,3.52z"/>
		<path fill="#ABD7D3" d="M1.06,6.58c0.38,0.44,0.32,1.12,0.32,1.12S0.7,7.65,0.32,7.21S0,6.09,0,6.09S0.68,6.13,1.06,6.58z"/>
		<path fill="#ABD7D3" d="M1.98,6.58C1.6,7.02,1.67,7.69,1.67,7.69s0.68-0.04,1.06-0.48C3.1,6.77,3.04,6.09,3.04,6.09
			S2.36,6.13,1.98,6.58z"/>
	</g>
</g>
</svg>
